src/assets/outline/TruckRemove.svg

<?xml version="1.0" encoding="UTF-8"?>
<svg width="24" height="24" viewBox="0 0 24 24" xmlns="http://www.w3.org/2000/svg">
 <path d="m13 14.75h-11c-0.41 0-0.75-0.34-0.75-0.75v-6.38c0-0.32001 0.19999-0.60003 0.48999-0.71003 0.3-0.11 0.63002-0.01996 0.83002 0.22003 0.6 0.71 1.47 1.11 2.42 1.11h0.08002c0.8-0.02 1.54-0.31998 2.1-0.84998 0.26-0.22 0.47001-0.48001 0.63001-0.77001 0.31-0.53 0.46001-1.11 0.45001-1.7-0.02-0.92-0.41998-1.76-1.1-2.37-0.24-0.21-0.32002-0.54002-0.21002-0.83002s0.39001-0.48999 0.70001-0.48999h7.36c0.41 0 0.75 0.34 0.75 0.75v10c0 1.54-1.23 2.77-2.75 2.77zm-10.25-1.5h10.25c0.69 0 1.25-0.56 1.25-1.25v-9.25h-5.06c0.35 0.65 0.54 1.38 0.56 2.14 0.02 0.87-0.20002 1.73-0.64001 2.48-0.24 0.42999-0.57 0.84001-0.93 1.14-0.8 0.76-1.9 1.21-3.07 1.24-0.83 0.03-1.65-0.18-2.35-0.56v4.06h-0.01001z"/>
 <path d="m19 20.75h-1c-0.41 0-0.75-0.34-0.75-0.75 0-0.69-0.56-1.25-1.25-1.25s-1.25 0.56-1.25 1.25c0 0.41-0.34 0.75-0.75 0.75h-4c-0.41 0-0.75-0.34-0.75-0.75 0-0.69-0.56-1.25-1.25-1.25s-1.25 0.56-1.25 1.25c0 0.41-0.34 0.75-0.75 0.75h-1c-2.07 0-3.75-1.68-3.75-3.75v-3c0-0.41 0.34-0.75 0.75-0.75h11c0.69 0 1.25-0.56 1.25-1.25v-7c0-0.41 0.34-0.75 0.75-0.75h1.84c0.99 0 1.9 0.53001 2.39 1.39l1.71 2.99c0.13 0.23 0.13 0.52 0 0.75s-0.38 0.37-0.65 0.37h-1.29c-0.14 0-0.25 0.11-0.25 0.25v3c0 0.14 0.11 0.25 0.25 0.25h3c0.41 0 0.75 0.34 0.75 0.75v3c0 2.07-1.68 3.75-3.75 3.75zm-0.35-1.5h0.35c1.24 0 2.25-1.01 2.25-2.25v-2.25h-2.25c-0.96 0-1.75-0.79-1.75-1.75v-3c0-0.96 0.78-1.75 1.75-1.75l-1.07-1.87c-0.22-0.39-0.64-0.63-1.09-0.63h-1.09v6.25c0 1.52-1.23 2.75-2.75 2.75h-10.25v2.25c0 1.24 1.01 2.25 2.25 2.25h0.34998c0.33-1.15 1.39-2 2.65-2s2.32 0.85 2.65 2h2.71c0.33-1.15 1.39-2 2.65-2s2.31 0.85 2.64 2z"/>
 <path d="m8 22.75c-1.52 0-2.75-1.23-2.75-2.75s1.23-2.75 2.75-2.75 2.75 1.23 2.75 2.75-1.23 2.75-2.75 2.75zm0-4c-0.69 0-1.25 0.56-1.25 1.25s0.56 1.25 1.25 1.25 1.25-0.56 1.25-1.25-0.56-1.25-1.25-1.25z"/>
 <path d="m16 22.75c-1.52 0-2.75-1.23-2.75-2.75s1.23-2.75 2.75-2.75 2.75 1.23 2.75 2.75-1.23 2.75-2.75 2.75zm0-4c-0.69 0-1.25 0.56-1.25 1.25s0.56 1.25 1.25 1.25 1.25-0.56 1.25-1.25-0.56-1.25-1.25-1.25z"/>
 <path d="m22 14.75h-3c-0.96 0-1.75-0.79-1.75-1.75v-3c0-0.96 0.79-1.75 1.75-1.75h1.29c0.27 0 0.52 0.14 0.65 0.38l1.71 3c0.06 0.11 0.1 0.24 0.1 0.37v2c0 0.41-0.34 0.75-0.75 0.75zm-3-5c-0.14 0-0.25 0.11-0.25 0.25v3c0 0.14 0.11 0.25 0.25 0.25h2.25v-1.05l-1.4-2.45h-0.85z"/>
 <path d="m5 9.75c-1.66 0-3.22-0.88-4.06-2.31-0.45-0.72-0.69-1.57-0.69-2.44 0-1.46 0.65003-2.81 1.78-3.71 0.84-0.67 1.9-1.04 2.97-1.04 2.62 0 4.75 2.13 4.75 4.75 0 0.87-0.24 1.72-0.69 2.45-0.25 0.42-0.57001 0.8-0.95001 1.12-0.83 0.76-1.94 1.18-3.11 1.18zm0-8c-0.74 0-1.44 0.24997-2.03 0.71997-0.77 0.61-1.22 1.54-1.22 2.53 0 0.59 0.15997 1.17 0.46997 1.67 0.58 0.98 1.65 1.58 2.78 1.58 0.79 0 1.55-0.29 2.13-0.81 0.26001-0.22 0.48002-0.48001 0.64002-0.76001 0.32-0.51 0.47998-1.09 0.47998-1.68 0-1.79-1.46-3.25-3.25-3.25z"/>
 <path d="m6.0699 6.7901c-0.19 0-0.38003-0.06997-0.53003-0.21997l-2.11-2.11c-0.29-0.29-0.29-0.76999 0-1.06s0.77-0.29 1.06 0l2.11 2.11c0.29 0.29 0.29 0.77 0 1.06-0.15 0.15-0.33997 0.21997-0.52997 0.21997z"/>
 <path d="m3.9301 6.8199c-0.19 0-0.37997-0.07003-0.52997-0.22003-0.29-0.29-0.29-0.77 0-1.06l2.11-2.11c0.29-0.29 0.77-0.29 1.06 0s0.29 0.77 0 1.06l-2.11 2.11c-0.15 0.15-0.34002 0.22003-0.53002 0.22003z"/>
</svg>

<svg width="24" height="24" viewBox="0 0 24 24"  xmlns="http://www.w3.org/2000/svg">
<path d="M13 14.75H2C1.59 14.75 1.25 14.41 1.25 14V7.62C1.25 7.29999 1.44999 7.01997 1.73999 6.90997C2.03999 6.79997 2.37001 6.89001 2.57001 7.13C3.17001 7.84 4.03999 8.23999 4.98999 8.23999C5.01999 8.23999 5.04001 8.23999 5.07001 8.23999C5.87001 8.21999 6.60998 7.92001 7.16998 7.39001C7.42998 7.17001 7.63999 6.91 7.79999 6.62C8.10999 6.09 8.26 5.50998 8.25 4.91998C8.23 3.99998 7.83002 3.15999 7.15002 2.54999C6.91002 2.33999 6.83 2.00997 6.94 1.71997C7.05 1.42997 7.33001 1.22998 7.64001 1.22998H15C15.41 1.22998 15.75 1.56998 15.75 1.97998V11.98C15.75 13.52 14.52 14.75 13 14.75ZM2.75 13.25H13C13.69 13.25 14.25 12.69 14.25 12V2.75H9.19C9.54 3.4 9.73 4.13001 9.75 4.89001C9.77 5.76001 9.54998 6.62 9.10999 7.37C8.86999 7.79999 8.53999 8.21001 8.17999 8.51001C7.37999 9.27001 6.27999 9.72 5.10999 9.75C4.27999 9.78 3.46001 9.57 2.76001 9.19V13.25H2.75Z" />
<path d="M19 20.75H18C17.59 20.75 17.25 20.41 17.25 20C17.25 19.31 16.69 18.75 16 18.75C15.31 18.75 14.75 19.31 14.75 20C14.75 20.41 14.41 20.75 14 20.75H10C9.59 20.75 9.25 20.41 9.25 20C9.25 19.31 8.69 18.75 8 18.75C7.31 18.75 6.75 19.31 6.75 20C6.75 20.41 6.41 20.75 6 20.75H5C2.93 20.75 1.25 19.07 1.25 17V14C1.25 13.59 1.59 13.25 2 13.25H13C13.69 13.25 14.25 12.69 14.25 12V5C14.25 4.59 14.59 4.25 15 4.25H16.84C17.83 4.25 18.74 4.78001 19.23 5.64001L20.94 8.63C21.07 8.86 21.07 9.15 20.94 9.38C20.81 9.61 20.56 9.75 20.29 9.75H19C18.86 9.75 18.75 9.86 18.75 10V13C18.75 13.14 18.86 13.25 19 13.25H22C22.41 13.25 22.75 13.59 22.75 14V17C22.75 19.07 21.07 20.75 19 20.75ZM18.65 19.25H19C20.24 19.25 21.25 18.24 21.25 17V14.75H19C18.04 14.75 17.25 13.96 17.25 13V10C17.25 9.04 18.03 8.25 19 8.25L17.93 6.38C17.71 5.99 17.29 5.75 16.84 5.75H15.75V12C15.75 13.52 14.52 14.75 13 14.75H2.75V17C2.75 18.24 3.76 19.25 5 19.25H5.34998C5.67998 18.1 6.74 17.25 8 17.25C9.26 17.25 10.32 18.1 10.65 19.25H13.36C13.69 18.1 14.75 17.25 16.01 17.25C17.27 17.25 18.32 18.1 18.65 19.25Z" />
<path d="M8 22.75C6.48 22.75 5.25 21.52 5.25 20C5.25 18.48 6.48 17.25 8 17.25C9.52 17.25 10.75 18.48 10.75 20C10.75 21.52 9.52 22.75 8 22.75ZM8 18.75C7.31 18.75 6.75 19.31 6.75 20C6.75 20.69 7.31 21.25 8 21.25C8.69 21.25 9.25 20.69 9.25 20C9.25 19.31 8.69 18.75 8 18.75Z" />
<path d="M16 22.75C14.48 22.75 13.25 21.52 13.25 20C13.25 18.48 14.48 17.25 16 17.25C17.52 17.25 18.75 18.48 18.75 20C18.75 21.52 17.52 22.75 16 22.75ZM16 18.75C15.31 18.75 14.75 19.31 14.75 20C14.75 20.69 15.31 21.25 16 21.25C16.69 21.25 17.25 20.69 17.25 20C17.25 19.31 16.69 18.75 16 18.75Z" />
<path d="M22 14.75H19C18.04 14.75 17.25 13.96 17.25 13V10C17.25 9.04 18.04 8.25 19 8.25H20.29C20.56 8.25 20.81 8.39 20.94 8.63L22.65 11.63C22.71 11.74 22.75 11.87 22.75 12V14C22.75 14.41 22.41 14.75 22 14.75ZM19 9.75C18.86 9.75 18.75 9.86 18.75 10V13C18.75 13.14 18.86 13.25 19 13.25H21.25V12.2L19.85 9.75H19Z" />
<path d="M5 9.75C3.34 9.75 1.78 8.87 0.940002 7.44C0.490002 6.72 0.25 5.87 0.25 5C0.25 3.54 0.900029 2.18998 2.03003 1.28998C2.87003 0.619978 3.93 0.25 5 0.25C7.62 0.25 9.75 2.38 9.75 5C9.75 5.87 9.51 6.72001 9.06 7.45001C8.81 7.87001 8.48999 8.25001 8.10999 8.57001C7.27999 9.33001 6.17 9.75 5 9.75ZM5 1.75C4.26 1.75 3.55997 1.99997 2.96997 2.46997C2.19997 3.07997 1.75 4.01 1.75 5C1.75 5.59 1.90997 6.16998 2.21997 6.66998C2.79997 7.64998 3.87 8.25 5 8.25C5.79 8.25 6.55 7.96 7.13 7.44C7.39001 7.22 7.61002 6.95999 7.77002 6.67999C8.09002 6.16999 8.25 5.59 8.25 5C8.25 3.21 6.79 1.75 5 1.75Z" />
<path d="M6.06992 6.79007C5.87992 6.79007 5.68989 6.7201 5.53989 6.5701L3.4299 4.46011C3.1399 4.17011 3.1399 3.69012 3.4299 3.40012C3.7199 3.11012 4.1999 3.11012 4.4899 3.40012L6.59989 5.5101C6.88989 5.8001 6.88989 6.2801 6.59989 6.5701C6.44989 6.7201 6.25992 6.79007 6.06992 6.79007Z" />
<path d="M3.93009 6.81992C3.74009 6.81992 3.55012 6.74989 3.40012 6.59989C3.11012 6.30989 3.11012 5.82989 3.40012 5.53989L5.5101 3.4299C5.8001 3.1399 6.2801 3.1399 6.5701 3.4299C6.8601 3.7199 6.8601 4.1999 6.5701 4.4899L4.46011 6.59989C4.31011 6.74989 4.12009 6.81992 3.93009 6.81992Z" />
</svg>
